X: 1
T: Grania's Welcome Home (The March)
M: 4/4
L: 1/8
R: reel
K: Amix
|:e3d c2 A2|e2 AA Bc d2|e3d c2 A2|d2 GG Bc d2|
e3d c2 A2|e2 AA B2 A2|G2 df gf ge|1 d2 GG Bc d2 :|2 d2 GG Bc de||
|:c3g ag fa|e2 AA Bc de|c3f gf ge|d2 GG Bc de|
c3 g ag fa|gf eg ~f3 e|d2 ef gf ge|1 d2 GG Bc de :|2 d2 GG Bc d2||
